X: 6
T:Beaux of Oakhill
% Nottingham Music Database
S:Kevin Briggs
M:4/4
L:1/8
R:Hornpipe
K:D
dB|"D"BAFA DAFA|"G"BA B2/3c2/3d2/3 "A7"e2de|"D"fgaf "A7/e"egfe|"D/f+"dfed "G"B2dB|
"D"BAFA DAFA|"G"BA B2/3c2/3d2/3 "A"e2de|"Bm"faaf "A7/c+"egfe|"D"d2f2 d2:|:
fg|"D"afdf a2gf|"Em"efga "A7"b2ag|"D"fgaf "A7/e"egfe|"D/f+"dfed "G"B2dB|
"D"BAFA DAFA|"G"BA B2/3c2/3d2/3 "A"e2de|"Bm"faaf "A7/c+"egfe|"D"d2f2 d2:|


